dist/svg/u1F64F_u1F3FC.svg

<?xml version="1.0" encoding="UTF-8"?><svg id="Layer_1" xmlns="http://www.w3.org/2000/svg" viewBox="0 0 40 40"><rect width="40" height="40" style="fill:none; opacity:.1;"/><path d="M20.90375,15.58301l6.11591-1.94336-1.05615-8.74402c-.28534-1.3811-1.63788-2.26917-3.02087-1.98328-1.2298,.25403-2.06427,1.35132-2.03461,2.56226l-.00427,.00049V15.58301Z" style="fill:#ffb582;"/><g><path d="M23.35358,7.87671c1.26385,0,2.29193,.98218,2.4234,2.23828,.00818,.01221,.01489,.02722,.02301,.03955v-.93457c0-1.39001-1.08997-2.51001-2.45001-2.51001-1.34998,0-2.44995,1.12-2.44995,2.51001,0,.09009,0,.17004,.00995,.26001v.84204c.03131-1.35498,1.11066-2.44531,2.4436-2.44531Z" style="fill:#ec6700;"/><path d="M37.11578,25.84668h-5.72321c-.62744-1.14111-3.74603-7.01746-4.37292-12.20703-.17096-1.41553-.62885-2.5896-1.21967-3.48511-.00812-.01233-.01483-.02734-.02301-.03955-.13147-1.2561-1.15955-2.23828-2.4234-2.23828-1.33295,0-2.41229,1.09033-2.4436,2.44531-.00049,.02002-.0058,.0387-.0058,.05884l.00171,.01636v.71631c-.00018,.02026-.00391,.03564-.00391,.05615V28.27686c0,.25195,.01294,.48242,.03522,.69727,.34943,3.46338,3.27344,6.16699,6.82904,6.16699h9.34955c.76447,0,1.38422-.61963,1.38422-1.38416v-6.526c0-.7644-.61975-1.38428-1.38422-1.38428Z" style="fill:#ffb582;"/></g><path d="M17.05737,2.91235c-1.383-.28589-2.73553,.60217-3.02087,1.98328l-1.05615,8.74402,6.11591,1.94336V5.4751l-.00427-.00049c.02966-1.21094-.80481-2.30823-2.03461-2.56226Z" style="fill:#ffb582;"/><g><path d="M16.64642,7.87671c1.33295,0,2.41229,1.09033,2.4436,2.44531v-.84204c.00995-.08997,.00995-.16992,.00995-.26001,0-1.39001-1.09998-2.51001-2.44995-2.51001-1.36005,0-2.45001,1.12-2.45001,2.51001v.93457c.00812-.01233,.01483-.02734,.02301-.03955,.13147-1.2561,1.15955-2.23828,2.4234-2.23828Z" style="fill:#ec6700;"/><path d="M19.09412,10.39722l.00171-.01636c0-.02014-.00531-.03882-.0058-.05884-.03131-1.35498-1.11066-2.44531-2.4436-2.44531-1.26385,0-2.29193,.98218-2.4234,2.23828-.00818,.01221-.01489,.02722-.02301,.03955-.59082,.89551-1.04871,2.06958-1.21967,3.48511-.62689,5.18958-3.74548,11.06592-4.37292,12.20703H2.88422c-.76447,0-1.38422,.61987-1.38422,1.38428v6.526c0,.76453,.61975,1.38416,1.38422,1.38416H12.23376c3.5556,0,6.47961-2.70361,6.82904-6.16699,.02228-.21484,.03522-.44531,.03522-.69727V11.16968c0-.02051-.00372-.03589-.00391-.05615v-.71631Z" style="fill:#ffb582;"/></g><g><rect x="1.5" y="25.00466" width="7.08723" height="10.88215" rx="1" ry="1" style="fill:#2f81f9;"/><rect x="31.41277" y="25.00466" width="7.08723" height="10.88215" rx="1" ry="1" style="fill:#2f81f9;"/></g></svg>

<svg id="Layer_1" data-name="Layer 1" xmlns="http://www.w3.org/2000/svg" viewBox="0 0 40 40"><defs><style>.cls-1{fill:none;opacity:0.1;}.cls-2{fill:#ffb582;}.cls-3{fill:#ec6700;}.cls-4{fill:#2f81f9;}</style></defs><rect class="cls-1" width="40" height="40"/><path class="cls-2" d="M20.9,15.583,27.02,13.64,25.964,4.9a2.555,2.555,0,0,0-5.056.579h0Z"/><rect class="cls-3" x="20.906" y="9.216" width="4.899" height="3.476"/><ellipse class="cls-3" cx="23.354" cy="9.216" rx="2.45" ry="2.504"/><path class="cls-2" d="M37.116,25.847H31.393c-.628-1.141-3.746-7.018-4.373-12.207a8.063,8.063,0,0,0-1.243-3.525,2.441,2.441,0,0,0-4.873.266l0,.016v.717c0,.02,0,.035,0,.056V28.277a6.859,6.859,0,0,0,6.864,6.864h9.35A1.384,1.384,0,0,0,38.5,33.757V27.231A1.384,1.384,0,0,0,37.116,25.847Z"/><path class="cls-2" d="M17.057,2.912A2.556,2.556,0,0,0,14.036,4.9L12.98,13.64,19.1,15.583V5.475h0A2.553,2.553,0,0,0,17.057,2.912Z"/><rect class="cls-3" x="14.195" y="9.216" width="4.899" height="3.476"/><ellipse class="cls-3" cx="16.646" cy="9.216" rx="2.45" ry="2.504"/><path class="cls-2" d="M19.094,11.114V10.4l0-.016a2.441,2.441,0,0,0-4.873-.266A8.063,8.063,0,0,0,12.98,13.64c-.627,5.189-3.745,11.066-4.373,12.207H2.884A1.384,1.384,0,0,0,1.5,27.231v6.526a1.384,1.384,0,0,0,1.384,1.384h9.35A6.859,6.859,0,0,0,19.1,28.277V11.17C19.1,11.149,19.094,11.134,19.094,11.114Z"/><rect class="cls-4" x="1.5" y="25.005" width="7.087" height="10.882" rx="1"/><rect class="cls-4" x="31.413" y="25.005" width="7.087" height="10.882" rx="1"/></svg>
